src/static/logos/appfog.svg

<?xml version="1.0" encoding="UTF-8" standalone="no"?>
<svg width="256px" height="159px" viewBox="0 0 256 159" version="1.1" xmlns="http://www.w3.org/2000/svg" xmlns:xlink="http://www.w3.org/1999/xlink" preserveAspectRatio="xMidYMid">
    <g>
        <path d="M202.469417,51.5277383 C197.007112,51.5277383 192.455192,56.0796586 192.455192,61.541963 C192.455192,67.0042674 197.007112,71.5561878 202.469417,71.5561878 C221.041252,71.5561878 235.97155,86.6685633 235.97155,105.058321 C235.97155,123.630156 220.859175,138.560455 202.469417,138.560455 L44.0625889,138.560455 C30.7709815,138.742532 20.0284495,128 20.0284495,114.708393 C20.0284495,101.416785 30.7709815,90.85633 43.8805121,90.85633 C49.3428165,90.85633 53.8947368,86.3044097 53.8947368,80.8421053 C53.8947368,75.3798009 49.3428165,70.8278805 43.8805121,70.8278805 C19.6642959,70.8278805 0,90.4921764 0,114.708393 C0,138.924609 19.6642959,158.588905 43.8805121,158.588905 L202.28734,158.588905 C231.783784,158.588905 256,134.554765 256,104.876245 C256,75.197724 231.965861,51.5277383 202.469417,51.5277383 Z M41.5135135,53.5305832 C47.1578947,47.886202 54.8051209,44.7908962 62.8165007,44.7908962 C79.3854908,44.7908962 92.859175,58.2645804 92.859175,74.8335704 L92.859175,107.061166 L112.887624,107.061166 C113.615932,87.7610242 129.638691,72.284495 149.12091,72.284495 C154.583215,72.284495 159.135135,67.7325747 159.135135,62.2702703 C159.135135,56.8079659 154.583215,52.2560455 149.12091,52.2560455 C135.283073,52.2560455 122.719772,57.1721195 112.887624,65.5476529 L112.887624,51.5277383 C115.254623,33.8662873 130.549075,20.0284495 148.938834,20.0284495 C158.588905,20.0284495 167.692745,23.8520626 174.611664,30.5889047 C178.617354,34.5945946 184.807966,34.5945946 188.813656,30.5889047 C192.819346,26.5832148 192.819346,20.3926031 188.813656,16.3869132 C178.071124,5.82645804 163.869132,0 148.938834,0 C124.540541,0 103.783784,15.4765292 95.9544808,37.14367 C87.0327169,29.314367 75.5618777,24.5803698 62.8165007,24.5803698 C49.3428165,24.5803698 36.7795164,29.8605974 27.311522,39.3285917 C23.3058321,43.3342817 23.3058321,49.5248933 27.311522,53.5305832 C31.3172119,57.5362731 37.6899004,57.5362731 41.5135135,53.5305832 Z" fill="#007F3E"></path>
    </g>
</svg>

<svg width="256" height="159" xmlns="http://www.w3.org/2000/svg" preserveAspectRatio="xMidYMid"><path d="M202.47 51.528c-5.463 0-10.015 4.552-10.015 10.014s4.552 10.014 10.014 10.014c18.572 0 33.503 15.113 33.503 33.502 0 18.572-15.113 33.502-33.503 33.502H44.063c-13.292.183-24.035-10.56-24.035-23.852 0-13.291 10.743-23.852 23.853-23.852 5.462 0 10.014-4.552 10.014-10.014S49.343 70.828 43.88 70.828C19.664 70.828 0 90.492 0 114.708c0 24.217 19.664 43.88 43.88 43.88h158.407c29.497 0 53.713-24.033 53.713-53.712 0-29.678-24.034-53.348-53.53-53.348zM41.513 53.53c5.644-5.645 13.291-8.74 21.303-8.74 16.568 0 30.042 13.474 30.042 30.043v32.227h20.029c.728-19.3 16.75-34.777 36.233-34.777 5.462 0 10.014-4.551 10.014-10.014 0-5.462-4.552-10.014-10.014-10.014-13.838 0-26.401 4.916-36.233 13.292v-14.02c2.367-17.662 17.661-31.5 36.05-31.5 9.65 0 18.755 3.824 25.674 10.56 4.005 4.007 10.196 4.007 14.202 0 4.005-4.005 4.005-10.195 0-14.201C178.07 5.827 163.869 0 148.939 0c-24.398 0-45.155 15.477-52.985 37.144-8.921-7.83-20.392-12.564-33.137-12.564-13.474 0-26.037 5.28-35.505 14.749-4.006 4.005-4.006 10.196 0 14.202 4.005 4.005 10.378 4.005 14.202 0z" fill="#007F3E"/></svg>
